X: 174
M: 3/4
L: 1/8
K: G
d(e/f/) |\
g2 (d<B)(d<B) | G4 (AB/^c/) |\
d2 (A<F)(A<F) | D4 AB |\
c2 a2 BA | B2 g2 BA/G/ |\
fg |\
a4 (f/a/)f | B4 ef |\
g4 (e/g/)e | A4 ef |\
g2 f2 e2 | a2 gfed |\
e2 d2 ^c2 | "_Da Capo"d4 |]

